X:1
T: The Earl of Home
T: 8 x 32S 2C (RSCDS Bk 12)
P: The Earl of Home's Country Dance
C: arr. T. Traub 6-20-2005
M: 4/4
L: 1/8
%
K: D
d|"D"A>DA>F "Em"B>EG<B|"D"A>DA>F "G"B<G"D"A>F|"G"G>B"D"F>A "Em"E>FG<B|"D"A>D"A"A>F "D"A>D F :|
A|"D"d>ef>d "A"c>de>f|"D"d>ef>d "A"e>c"G"d>B|"D"A>Fd>F "Em"E>FG>B|"D"A>D"A"A>F "D"A<DF>A|
"D"d/c/d/e/ f>d "A"c>de>f|"D"d>ef>d "A"e>c"G"d>B|"D"A<Fd>F "Em"E>FG<B|"D"A>FA>B d>AB<d|]
